icon-themes/breeze_svg/chart2/res/lc_typecolumn.svg

<svg viewBox="0 0 24 24" xmlns="http://www.w3.org/2000/svg"><path d="m6 3.9980469-1 .0019531v6 1 5 1 1h-1v1h1v1h1v-1h14v-1h-2v-9h-4v9h-1-1v-14h-4v14h-1-1v-1-1-3-1-1-1-3-.0097656-.9921875z" fill="#4d4d4d"/></svg>

<svg xmlns="http://www.w3.org/2000/svg" viewBox="0 0 24 24">
 <path 
     style="fill:#4d4d4d" 
     d="M 6 3.9980469 L 5 4 L 5 10 L 5 11 L 5 16 L 5 17 L 5 18 L 4 18 L 4 19 L 5 19 L 5 20 L 6 20 L 6 19 L 20 19 L 20 18 L 18 18 L 18 9 L 14 9 L 14 18 L 13 18 L 12 18 L 12 4 L 8 4 L 8 18 L 7 18 L 6 18 L 6 17 L 6 16 L 6 13 L 6 12 L 6 11 L 6 10 L 6 7 L 6 6.9902344 L 6 5.9980469 L 6 3.9980469 z "
     />
 </svg>
